X:566
T:
S:Efter instrumentmakar Köhler, Visby.
R:vals
O:Gotland, Visby
M:3/4
L:1/8
K:D
(3 ABc|dDFAdf|ba^gafd|feeABc|eddABc|dAFAdf|ba^gafd|
fe^deBc|A4::(3 ABc|AgAgAg|fcedcB|A^GBA=GE|DFAdfa|
AgAgAg|fcedcB|a^gba=ge|d4:|
K:G
|:Bd|b2 g4|fe A3 c|edFedF|GFGBed|b2 g4|fe A3 c|
fedcBA|G4:|

